svg/u1fa90.svg

<svg viewBox="0 0 128 128" xmlns="http://www.w3.org/2000/svg">
  <radialGradient id="SVGID_1_" cx="63.5391" cy="64.9305" gradientTransform="matrix(0.3979 0.9174 -3.1047 1.3466 239.8435 -80.7973)" gradientUnits="userSpaceOnUse" r="33.8256">
    <stop offset="0.119" stop-color="#E8D59A"/>
    <stop offset="0.2967" stop-color="#E9D297"/>
    <stop offset="0.4456" stop-color="#EAC78C"/>
    <stop offset="0.5837" stop-color="#EDB67B"/>
    <stop offset="0.6206" stop-color="#EEB075"/>
    <stop offset="0.9032" stop-color="#F5A97F"/>
  </radialGradient>
  <path d="M48.54,35.12C34.2,42.47,28.22,57.94,31.19,72.31c0.69,3.32,1.85,6.57,3.49,9.66 c8.17,15.32,29.33,20.43,45.83,11.38c14.31-7.85,22.62-26.71,14.45-43.34c-1.47-2.99-3.39-5.8-5.7-8.3 C80.08,31.76,64.89,26.75,48.54,35.12z" fill="url(#SVGID_1_)"/>
  <radialGradient id="SVGID_2_" cx="49.8919" cy="39.0121" gradientTransform="matrix(0.4505 0.8928 -2.512 1.2675 125.4157 -54.978)" gradientUnits="userSpaceOnUse" r="62.2276">
    <stop offset="0.2187" stop-color="#E3DDA6"/>
    <stop offset="0.278" stop-color="#E4D9A0"/>
    <stop offset="0.3544" stop-color="#E8CD90"/>
    <stop offset="0.3841" stop-color="#EAC788"/>
  </radialGradient>
  <path d="M89.25,41.71c-9.17-9.95-24.37-14.96-40.71-6.59C34.2,42.47,28.22,57.94,31.19,72.31 c0,0,8.89,0.32,32.53-13.4S89.25,41.71,89.25,41.71z" fill="url(#SVGID_2_)"/>
  <path d="M38.59,42.88c0,0,10.88-0.66,13.45-1.86c1.81-0.85,9.04-9.87,9.04-9.87s-6.16,0.44-12.65,3.88 C42.04,38.41,38.59,42.88,38.59,42.88z" fill="#C6DDCB"/>
  <path d="M31.19,72.31c0,0,9.09-0.8,30.29-12.35s26.89-19.17,26.89-19.17s3.37,3.29,5.52,7.19 c2.21,4.03,3.27,7.58,3.27,7.58L77.42,69.1c0,0-1.12-3.96,1.47-7.33c2.59-3.36,6.98-5.86,6.38-7.58s-5.43,0-9.48,3.36 c-4.05,3.36-8.01,7.15-9.48,6.12c-1.47-1.03,2.84-4.14,1.03-4.57s-5.17,1.64-9.91,5.69c-4.74,4.05-7.58,7.58-14.74,9.22 c-6.24,1.43-11.15-0.15-11.15-0.15L31.19,72.31z" fill="#F8DBAF"/>
  <radialGradient id="SVGID_3_" cx="60.6606" cy="68.5246" gradientUnits="userSpaceOnUse" r="26.6043">
    <stop offset="0.4216" stop-color="#F6DFB4"/>
    <stop offset="0.9843" stop-color="#F9D4A4"/>
  </radialGradient>
  <path d="M34.16,80.99c0,0,5.03,0.89,10.92-1.29c9.05-3.35,11.53-7.56,15.49-9.67 c2.01-1.07,4.59-1.24,4.21,2.48c-0.4,4.03-8.43,9.17-8.43,9.17l-17.38,6.38c0,0-1.47-1.64-2.67-3.27 C35.36,83.49,34.16,80.99,34.16,80.99z" fill="url(#SVGID_3_)"/>
  <radialGradient id="SVGID_4_" cx="81.2859" cy="66.7397" gradientUnits="userSpaceOnUse" r="37.8186">
    <stop offset="0" stop-color="#F6DFB4"/>
    <stop offset="0.8693" stop-color="#F9D4A4"/>
  </radialGradient>
  <path d="M45.49,93.16c0,0,12.37-2.13,29.44-12.25s23.23-16.98,23.23-16.98s-0.01,1.71-0.09,2.61 s-0.28,2.1-0.28,2.1s-8.17,9.01-21.19,16.5c-15.11,8.7-25.85,10.5-25.85,10.5s-1.53-0.57-2.67-1.1 C47.1,94.1,45.49,93.16,45.49,93.16z" fill="url(#SVGID_4_)"/>
  <path d="M32.36,53.63c0,0-0.48,1.4-0.78,2.59s-0.61,2.81-0.61,2.81s7.6-0.89,25.18-10.04 s21.49-15.55,21.49-15.55s-1.37-0.58-2.77-1.05c-1.11-0.37-2.6-0.71-2.6-0.71s-7.8,7.35-18.42,12.71 C40.54,51.09,32.36,53.63,32.36,53.63z" fill="#F6CB89"/>
  <path d="M30.68,60.82c0,0-0.07,0.75-0.12,1.26c-0.07,0.73-0.09,1.52-0.09,1.52s9.59-0.78,27.25-10.57 s24.22-17.36,24.22-17.36s-0.77-0.49-1.48-0.86c-0.84-0.45-1.4-0.71-1.4-0.71s-6.41,8.21-22.76,16.55 C37.95,60,30.68,60.82,30.68,60.82z" fill="#F6CB89"/>
  <path d="M87.19,39.63c0,0,33.25-14.36,38.81-6.93c5.56,7.44-25.64,28.82-57.51,45.96S5.92,106.82,2.2,98.99 s28.62-28.66,28.62-28.66s0.09,0.52,0.21,1.15c0.11,0.59,0.31,1.58,0.31,1.58L16.98,85.15l-1.81,8.2l17.77-3.32 c0,0,20.18-7.14,33.29-13.96s40.63-26.51,40.63-26.51l7.89-13.18l-25.85,4.94c0,0-0.36-0.37-0.81-0.82 C87.61,40.02,87.19,39.63,87.19,39.63z" fill="#94C7EA"/>
  <path d="M31.09,71.79c0,0-26.22,15.51-22.87,23.78c3.04,7.5,36.22-4.7,63.81-20.44 c25.35-14.47,52.64-32.03,47.95-39.85c-4.13-6.89-31.89,5.23-31.89,5.23s0.3,0.28,0.63,0.63c0.24,0.26,0.51,0.53,0.51,0.53 s20.68-5.19,22.21-2.13S92.23,62.1,70.39,73.43S19.02,97.06,17.31,92.1c-2.46-7.13,14.12-18.7,14.12-18.7s-0.16-0.69-0.2-0.91 C31.16,72.19,31.09,71.79,31.09,71.79z" fill="#6BA5AF"/>
  <path d="M89.09,41.54c0,0,24.24-9.34,27.58-4.46s-15.83,20.98-46.5,37.28S14.03,99.66,11.2,93.77 c-2.83-5.89,20.03-21.28,20.03-21.28s0.1,0.45,0.21,0.92c0.11,0.48,0.41,1.57,0.41,1.57S17.77,85.64,19.99,88.15 c2.22,2.51,18.46,0.19,48.01-14.86c29.85-15.21,41.3-28.44,38.2-31.43c-2.02-1.94-15.52,1.5-15.52,1.5s-0.47-0.56-0.79-0.93 C89.58,42.05,89.09,41.54,89.09,41.54z" fill="#A7CED6"/>
  <path d="M90.32,42.93c0,0,16.37-6.61,18.98-1.45c3.03,6-22.32,22.61-41.52,33.07 C49.08,84.73,21,94.65,18.1,89.53c-2.39-4.23,13.5-15.41,13.5-15.41s0.13,0.51,0.3,1.1c0.09,0.31,0.28,0.91,0.28,0.91 s-10.65,7.59-8.67,10.55s22.24-2.38,43.27-13.36C92.1,60.11,106.97,46.9,104.83,43.4c-2.14-3.49-13.39,0.91-13.39,0.91 s-0.31-0.4-0.5-0.64C90.69,43.36,90.32,42.93,90.32,42.93z" fill="#DDECF6"/>
</svg>

<svg viewBox="0 0 128 128" xmlns="http://www.w3.org/2000/svg">
  <defs>
    <radialGradient id="SVGID_1_" cx="84.85131" cy="-9.589863" gradientTransform="matrix(0.3979 0.9174 -3.1047 1.3466 0 0)" gradientUnits="userSpaceOnUse" r="33.8256">
      <stop offset="0.119" stop-color="#E8D59A"/>
      <stop offset="0.2967" stop-color="#E9D297"/>
      <stop offset="0.4456" stop-color="#EAC78C"/>
      <stop offset="0.5837" stop-color="#EDB67B"/>
      <stop offset="0.6206" stop-color="#EEB075"/>
      <stop offset="0.9032" stop-color="#F5A97F"/>
    </radialGradient>
    <radialGradient id="SVGID_2_" cx="57.305447" cy="-9.584993" gradientTransform="matrix(0.4505 0.8928 -2.512 1.2675 0 0)" gradientUnits="userSpaceOnUse" r="62.2276">
      <stop offset="0.2187" stop-color="#E3DDA6"/>
      <stop offset="0.278" stop-color="#E4D9A0"/>
      <stop offset="0.3544" stop-color="#E8CD90"/>
      <stop offset="0.3841" stop-color="#EAC788"/>
    </radialGradient>
    <radialGradient id="SVGID_3_" cx="60.6606" cy="68.5246" gradientUnits="userSpaceOnUse" r="26.6043">
      <stop offset="0.4216" stop-color="#F6DFB4"/>
      <stop offset="0.9843" stop-color="#F9D4A4"/>
    </radialGradient>
    <radialGradient id="SVGID_4_" cx="81.2859" cy="66.7397" gradientUnits="userSpaceOnUse" r="37.8186">
      <stop offset="0" stop-color="#F6DFB4"/>
      <stop offset="0.8693" stop-color="#F9D4A4"/>
    </radialGradient>
  </defs>
  <path d="M48.54,35.12 C34.2,42.47 28.22,57.94 31.19,72.31 C31.88,75.63 33.04,78.88 34.68,81.97 C42.85,97.29 64.01,102.4 80.51,93.35 C94.82,85.5 103.13,66.64 94.96,50.01 C93.49,47.02 91.57,44.21 89.26,41.71 C80.08,31.76 64.89,26.75 48.54,35.12 Z" fill="url(#SVGID_1_)"/>
  <path d="M89.25,41.71 C80.08,31.76 64.88,26.75 48.54,35.12 C34.2,42.47 28.22,57.94 31.19,72.31 C31.19,72.31 40.08,72.63 63.72,58.91 C87.36,45.19 89.25,41.71 89.25,41.71 Z" fill="url(#SVGID_2_)"/>
  <path d="M38.59,42.88 C38.59,42.88 49.47,42.22 52.04,41.02 C53.85,40.17 61.08,31.15 61.08,31.15 C61.08,31.15 54.92,31.59 48.43,35.03 C42.04,38.41 38.59,42.88 38.59,42.88 Z" fill="#C6DDCB"/>
  <path d="M31.19,72.31 C31.19,72.31 40.28,71.51 61.48,59.96 C82.68,48.41 88.37,40.79 88.37,40.79 C88.37,40.79 91.74,44.08 93.89,47.98 C96.1,52.01 97.16,55.56 97.16,55.56 L77.42,69.1 C77.42,69.1 76.3,65.14 78.89,61.77 C81.48,58.41 85.87,55.91 85.27,54.19 C84.67,52.47 79.84,54.19 75.79,57.55 C71.74,60.91 67.78,64.7 66.31,63.67 C64.84,62.64 69.15,59.53 67.34,59.1 C65.53,58.67 62.17,60.74 57.43,64.79 C52.69,68.84 49.85,72.37 42.69,74.01 C36.45,75.44 31.54,73.86 31.54,73.86 L31.19,72.31 Z" fill="#F8DBAF"/>
  <path d="M34.16,80.99 C34.16,80.99 39.19,81.88 45.08,79.7 C54.13,76.35 56.61,72.14 60.57,70.03 C62.58,68.96 65.16,68.79 64.78,72.51 C64.38,76.54 56.35,81.68 56.35,81.68 L38.97,88.06 C38.97,88.06 37.5,86.42 36.3,84.79 C35.36,83.49 34.16,80.99 34.16,80.99 Z" fill="url(#SVGID_3_)"/>
  <path d="M45.49,93.16 C45.49,93.16 57.86,91.03 74.93,80.91 C92,70.79 98.16,63.93 98.16,63.93 C98.16,63.93 98.15,65.64 98.07,66.54 C97.99,67.44 97.79,68.64 97.79,68.64 C97.79,68.64 89.62,77.65 76.6,85.14 C61.49,93.84 50.75,95.64 50.75,95.64 C50.75,95.64 49.22,95.07 48.08,94.54 C47.1,94.1 45.49,93.16 45.49,93.16 Z" fill="url(#SVGID_4_)"/>
  <path d="M32.36,53.63 C32.36,53.63 31.88,55.03 31.58,56.22 C31.28,57.41 30.97,59.03 30.97,59.03 C30.97,59.03 38.57,58.14 56.15,48.99 C73.73,39.84 77.64,33.44 77.64,33.44 C77.64,33.44 76.27,32.86 74.87,32.39 C73.76,32.02 72.27,31.68 72.27,31.68 C72.27,31.68 64.47,39.03 53.85,44.39 C40.54,51.09 32.36,53.63 32.36,53.63 Z" fill="#F6CB89"/>
  <path d="M30.68,60.82 C30.68,60.82 30.61,61.57 30.56,62.08 C30.49,62.81 30.47,63.6 30.47,63.6 C30.47,63.6 40.06,62.82 57.72,53.03 C75.38,43.24 81.94,35.67 81.94,35.67 C81.94,35.67 81.17,35.18 80.46,34.81 C79.62,34.36 79.06,34.1 79.06,34.1 C79.06,34.1 72.65,42.31 56.3,50.65 C37.95,60 30.68,60.82 30.68,60.82 Z" fill="#F6CB89"/>
  <path d="M87.19,39.63 C87.19,39.63 120.44,25.27 126,32.7 C131.56,40.14 100.36,61.52 68.49,78.66 C36.62,95.8 5.92,106.82 2.2,98.99 C-1.52,91.16 30.82,70.33 30.82,70.33 C30.82,70.33 30.91,70.85 31.03,71.48 C31.14,72.07 31.34,73.06 31.34,73.06 L16.98,85.15 L15.17,93.35 L32.94,90.03 C32.94,90.03 53.12,82.89 66.23,76.07 C79.34,69.25 106.86,49.56 106.86,49.56 L114.75,36.38 L88.9,41.32 C88.9,41.32 88.54,40.95 88.09,40.5 C87.61,40.02 87.19,39.63 87.19,39.63 Z" fill="#94C7EA"/>
  <path d="M31.09,71.79 C31.09,71.79 4.87,87.3 8.22,95.57 C11.26,103.07 44.44,90.87 72.03,75.13 C97.38,60.66 124.67,43.1 119.98,35.28 C115.85,28.39 88.09,40.51 88.09,40.51 C88.09,40.51 88.39,40.79 88.72,41.14 C88.96,41.4 89.23,41.67 89.23,41.67 C89.23,41.67 109.91,36.48 111.44,39.54 C112.97,42.6 92.23,62.1 70.39,73.43 C48.55,84.76 19.02,97.06 17.31,92.1 C14.85,84.97 31.43,73.4 31.43,73.4 C31.43,73.4 31.27,72.71 31.23,72.49 C31.16,72.19 31.09,71.79 31.09,71.79 Z" fill="#6BA5AF"/>
  <path d="M89.09,41.54 C89.09,41.54 113.33,32.2 116.67,37.08 C120.01,41.96 100.84,58.06 70.17,74.36 C39.5,90.66 14.03,99.66 11.2,93.77 C8.37,87.88 31.23,72.49 31.23,72.49 C31.23,72.49 31.33,72.94 31.44,73.41 C31.55,73.89 31.85,74.98 31.85,74.98 C31.85,74.98 17.77,85.64 19.99,88.15 C22.21,90.66 38.45,88.34 68,73.29 C97.85,58.08 109.3,44.85 106.2,41.86 C104.18,39.92 90.68,43.36 90.68,43.36 C90.68,43.36 90.21,42.8 89.89,42.43 C89.58,42.05 89.09,41.54 89.09,41.54 Z" fill="#A7CED6"/>
  <path d="M90.32,42.93 C90.32,42.93 106.69,36.32 109.3,41.48 C112.33,47.48 86.98,64.09 67.78,74.55 C49.08,84.73 21,94.65 18.1,89.53 C15.71,85.3 31.6,74.12 31.6,74.12 C31.6,74.12 31.73,74.63 31.9,75.22 C31.99,75.53 32.18,76.13 32.18,76.13 C32.18,76.13 21.53,83.72 23.51,86.68 C25.49,89.64 45.75,84.3 66.78,73.32 C92.1,60.11 106.97,46.9 104.83,43.4 C102.69,39.91 91.44,44.31 91.44,44.31 C91.44,44.31 91.13,43.91 90.94,43.67 C90.69,43.36 90.32,42.93 90.32,42.93 Z" fill="#DDECF6"/>
</svg>
